epam-assets/icon-sources/18/content-link.svg

<svg width="18" height="18" viewBox="0 0 18 18" fill="none" xmlns="http://www.w3.org/2000/svg">
<g id="18/content-link">
<g id="icon">
<path d="M8.99994 3.69698C10.4644 2.23252 12.8388 2.23252 14.3032 3.69698C15.7677 5.16145 15.7677 7.53582 14.3032 9.00028L13.508 9.79552C13.5986 9.1578 13.5248 8.50123 13.2868 7.89421C14.121 7.01252 14.1063 5.62134 13.2426 4.75764C12.3639 3.87896 10.9393 3.87896 10.0606 4.75764L7.93928 6.87896C7.07857 7.73968 7.06097 9.12423 7.88648 10.0064L7.93928 10.0609L6.87862 11.1216C5.41416 9.65714 5.41416 7.28277 6.87862 5.8183L8.99994 3.69698Z" fill="#6C6F80"/>
<path d="M3.69698 9.00029L4.43918 8.25809C4.34846 8.89702 4.42266 9.55486 4.66179 10.1628C3.88022 11.0465 3.91217 12.3975 4.75764 13.2429C5.63632 14.1216 7.06094 14.1216 7.93962 13.2429L10.0609 11.1216C10.9396 10.2429 10.9396 8.81831 10.0609 7.93963C9.87499 7.75367 9.66459 7.60707 9.44008 7.49983L10.5382 6.40168C10.7444 6.53825 10.94 6.69735 11.1216 6.87897C12.5861 8.34343 12.5861 10.7178 11.1216 12.1823L9.00028 14.3036C7.53582 15.7681 5.16145 15.7681 3.69698 14.3036C2.23252 12.8391 2.23252 10.4648 3.69698 9.00029Z" fill="#6C6F80"/>
</g>
</g>
</svg>

<svg xmlns="http://www.w3.org/2000/svg" width="18" height="18" fill="none" viewBox="0 0 18 18">
  <path fill="#6C6F80" d="M9 3.697A3.75 3.75 0 1 1 14.303 9l-.795.796a3.763 3.763 0 0 0-.221-1.902 2.25 2.25 0 0 0-3.226-3.136L7.939 6.879a2.25 2.25 0 0 0-.053 3.127l.053.055-1.06 1.06a3.75 3.75 0 0 1 0-5.303l2.12-2.121Z"/>
  <path fill="#6C6F80" d="m3.697 9 .742-.742a3.763 3.763 0 0 0 .223 1.905 2.25 2.25 0 0 0 3.278 3.08l2.12-2.121A2.25 2.25 0 0 0 9.44 7.5l1.098-1.098a3.75 3.75 0 0 1 .583 5.78l-2.12 2.122A3.75 3.75 0 1 1 3.696 9Z"/>
</svg>
